X: 112
T: Na ten czas, gdy Żydowie dostawszy swobody
C: Mikołaj Gomółka
%%abc-version 2.0
%%abcx-abcm2ps-target-version 5.9.1 (29 Sep 2008)
%%abc-creator hum2abc beta
%%abcx-conversion-date 2021/10/04 07:59:08
%%abc-edited-by Anna Matuszewska
%%abcx-initial-encoding-date 2020-02-19
%%humdrum-veritas 440595981
%%humdrum-veritas-data 2798778970
%%linebreak <none>
%%barnumbers 0
L: 1/4
M: C|
N: Derived from pl-wn--sd-xvi-qu-273--114_gomolka-mikolaj--na-ten-czas-gdy-zydowie-dostawszy-swobody.krn
%%staves [1 2 3 4]
V: 1
V: 2 clef=alto
V: 3 clef=alto
V: 4 clef=bass
K: F
[V:1] A4c4 | 
[V:2] E4E4 | 
[V:3] C4C4 | 
[V:4] A,,4A,,4 [|] 
[V:1] A2A2A2A2 | 
[V:2] F2E2E2E2 | 
[V:3] D2C2C3B, | 
[V:4] D,2A,2A,3G, [|] 
[V:1] A4B3A | 
[V:2] F2>E2DEFE | 
[V:3] A,2D2D3C | 
[V:4] F,E,D,C,B,,4 [|] 
[V:1] G2F4E2 | 
[V:2] D2C2C3B, | 
[V:3] B,2A,2G,4 | 
[V:4] B,,2F,,2C,4 [|] 
[V:1] F2G2A2c2 | 
[V:2] A,2E2A2A2 | 
[V:3] F,2C2F3E | 
[V:4] D,2E,2F,2F,2 [|] 
[V:1] B4A2A4 | 
[V:2] G2>F2E2E4 | 
[V:3] D4C2A,3 | 
[V:4] G,4A,2A,,4 [|] 
[V:1] A2d4 | 
[V:2] A4GF | 
[V:3] B,C2D4 | 
[V:4] A,,2B,,4 [|] 
[V:1] d4^c2A2 | 
[V:2] GA2GA2G2 | 
[V:3] D4E2^C2 | 
[V:4] B,,4A,,2A,,2 [|] 
[V:1] ^F2F2G4 | 
[V:2] D2D2E4 | 
[V:3] D2A,2C4 | 
[V:4] D,2D,2C,4 [|] 
[V:1] A2G2B2B2 | 
[V:2] E2>F2G2DE | 
[V:3] C2C2B,CD2 | 
[V:4] A,,2C,2G,,A,,B,,C, [|] 
[V:1] A4G2F4 | 
[V:2] F2>E2D2D2 | 
[V:3] A,2A,2B,4 | 
[V:4] D,4B,,2B,,2 [|] 
[V:1] E2F2G2 | 
[V:2] C2>B,2A,2E2 | 
[V:3] A,2G,2F,2C2 | 
[V:4] C,4D,2E,2 [|] 
[V:1] A2A2A4 | 
[V:2] C2F2E2FE | 
[V:3] C2D2C2DC | 
[V:4] F,2D,2A,,2D,2 [|] 
[V:1] G2D2F2ED | 
[V:2] DCD2C2B,2 | 
[V:3] B,A,B,2A,2G,F, | 
[V:4] G,,2B,,2F,,2G,,2 [|] 
[V:1] C2D4C2 | 
[V:2] A,2G,2A,4 | 
[V:3] E,2D,2E,4 | 
[V:4] A,,2B,,2A,,4 [|] 
[V:1] D8 | 
[V:2] A,8 | 
[V:3] ^F,8 | 
[V:4] D,8 | 


